icons/inbox-arrow-right.svg

<svg xmlns="http://www.w3.org/2000/svg" width="24" height="24" viewBox="0 0 24 24">
  <path d="M6,16 L6.11662113,16.0067277 C6.61395981,16.0644928 7,16.4871642 7,17 C7,18.5976809 8.24891996,19.9036609 9.82372721,19.9949073 L10,20 L14,20 L14.1762728,19.9949073 C15.6927538,19.9070404 16.9070404,18.6927538 16.9949073,17.1762728 L17,17 L17.0067277,16.8833789 C17.0600494,16.424297 17.424297,16.0600494 17.8833789,16.0067277 L18,16 L22,16 L22,20 C22,21.1045695 21.1045695,22 20,22 L4,22 C2.8954305,22 2,21.1045695 2,20 L2,16 L6,16 Z M20,2 C21.1045695,2 22,2.8954305 22,4 L22,14 L18,14 L17.8237272,14.0050927 C16.24892,14.0963391 15,15.4023191 15,17 C15,17.5128358 14.6139598,17.9355072 14.1166211,17.9932723 L14,18 L10,18 L9.88337887,17.9932723 C9.42429701,17.9399506 9.06004937,17.575703 9.00672773,17.1166211 L9,17 L8.99490731,16.8237272 C8.90704038,15.3072462 7.69275384,14.0929596 6.17627279,14.0050927 L6,14 L2,14 L2,4 C2,2.8954305 2.8954305,2 4,2 L20,2 Z M15.7837744,8.37889067 L15.7803112,8.37455101 L15.767,8.359 L15.775,8.37 L15.7071068,8.29289322 L12.7071068,5.29289322 L12.6128994,5.20970461 C12.2206082,4.90467972 11.6533772,4.93240926 11.2928932,5.29289322 C10.9023689,5.68341751 10.9023689,6.31658249 11.2928932,6.70710678 L11.2928932,6.70710678 L12.585,8 L9,8 L8.88337887,8.00672773 C8.38604019,8.06449284 8,8.48716416 8,9 C8,9.55228475 8.44771525,10 9,10 L9,10 L12.585,10 L11.2928932,11.2928932 L11.2097046,11.3871006 C10.9046797,11.7793918 10.9324093,12.3466228 11.2928932,12.7071068 C11.6834175,13.0976311 12.3165825,13.0976311 12.7071068,12.7071068 L12.7071068,12.7071068 L15.7071068,9.70710678 L15.7803112,9.62544899 C15.7826279,9.62256244 15.7849289,9.61966276 15.7902954,9.61289944 C15.7948255,9.60707334 15.7992821,9.60120864 15.8036865,9.5951593 C15.8215099,9.57113069 15.8382813,9.54627495 15.8540045,9.52070875 C15.8613931,9.50861311 15.8685012,9.49639444 15.8751242,9.48427695 C15.8862061,9.46429395 15.8966234,9.4438914 15.9063266,9.42322155 L15.9063266,9.42322155 L15.928896,9.37105852 C15.9366843,9.3515792 15.9438775,9.33179768 15.9502619,9.31214252 C15.9552713,9.29685134 15.9599023,9.28146328 15.964279,9.26583961 C15.9701664,9.24443648 15.9753602,9.22274608 15.9797599,9.20072576 C15.9832978,9.18337526 15.9863719,9.16594901 15.9889807,9.14896122 L15.9889807,9.14896122 L15.996,9.081 L15.997,9.059 L15.997,9.075 L15.9982669,9.05903139 L15.999,9.019 L16,9 L16,9 L15.9998198,8.98082404 L15.9982669,8.94096861 C15.9976744,8.93088722 15.99693,8.92081308 15.996002,8.90996805 L15.996002,8.90996805 L15.9889822,8.85153313 C15.9863719,8.83405099 15.9832978,8.81662474 15.9798348,8.7992059 C15.9753602,8.77725392 15.9701664,8.75556352 15.9641549,8.73400703 C15.9599023,8.71853672 15.9552713,8.70314866 15.9504533,8.68826359 C15.9438775,8.66820232 15.9366843,8.6484208 15.9287745,8.62866398 L15.9287745,8.62866398 L15.9063462,8.57690085 C15.8966234,8.5561086 15.8862061,8.53570605 15.8753288,8.5159379 L15.8753288,8.5159379 L15.8539326,8.47933981 C15.8382813,8.45372505 15.8215099,8.42886931 15.8036654,8.40469339 L15.8036654,8.40469339 L15.779,8.374 L15.7837744,8.37889067 Z"/>
</svg>

<svg xmlns="http://www.w3.org/2000/svg" viewBox="0 0 24 24">
  <path d="M6 16h.12A1 1 0 0 1 7 17a3 3 0 0 0 2.82 3h4.36a3 3 0 0 0 2.81-2.82L17 17v-.12a1 1 0 0 1 .88-.87L18 16h4v4a2 2 0 0 1-2 2H4a2 2 0 0 1-2-2v-4h4zM20 2a2 2 0 0 1 2 2v10h-4.18A3 3 0 0 0 15 17a1 1 0 0 1-.88 1H9.88a1 1 0 0 1-.87-.88L9 17v-.18a3 3 0 0 0-2.82-2.81L6 14H2V4c0-1.1.9-2 2-2h16zm-4.22 6.38-.01-.02v.01l-.06-.08-3-3-.1-.08a1 1 0 0 0-1.32 1.5L12.6 8H8.88A1 1 0 0 0 9 10h3.59l-1.3 1.3-.08.09a1 1 0 0 0 1.5 1.32l3-3 .07-.08a3 3 0 0 0 .1-.15l.03-.06.02-.05a.95.95 0 0 0 .06-.22v-.09.01-.05L16 9v-.09l-.01-.06a1.1 1.1 0 0 0-.06-.22l-.02-.05a1.04 1.04 0 0 0-.03-.06l-.03-.04a1.03 1.03 0 0 0-.05-.08l-.02-.03z"/>
</svg>
